dist/img/pages/blog/content-blog-svg.svg

<svg width="82" height="55" viewBox="0 0 82 55" fill="none" xmlns="http://www.w3.org/2000/svg">
<path fill-rule="evenodd" clip-rule="evenodd" d="M63.557 18.1332C73.5306 18.1332 81.5996 26.2929 81.5996 36.2665C81.5996 46.2401 73.44 54.3997 63.4664 54.3997C53.4928 54.3997 45.3331 46.2401 45.3331 36.2665C45.3331 16.2293 61.5624 0 81.5996 0C81.5996 0 69.7225 4.44232 63.557 18.1332ZM36.2665 36.2665C36.2665 46.2401 28.1069 54.3997 18.1332 54.3997C8.15964 54.3997 0 46.2401 0 36.2665C0 16.2293 16.2293 0 36.2665 0C36.2665 0 24.3894 4.44281 18.2239 18.1332C28.1975 18.1332 36.2665 26.2929 36.2665 36.2665Z" fill="black"/>
</svg>

<svg width="82" height="55" viewBox="0 0 82 55" fill="none" xmlns="http://www.w3.org/2000/svg"><path fill-rule="evenodd" clip-rule="evenodd" d="M63.557 18.133c9.974 0 18.043 8.16 18.043 18.134 0 9.973-8.16 18.133-18.134 18.133-9.973 0-18.133-8.16-18.133-18.133C45.333 16.229 61.563 0 81.6 0c0 0-11.877 4.442-18.043 18.133zm-27.29 18.134c0 9.973-8.16 18.133-18.134 18.133C8.16 54.4 0 46.24 0 36.267 0 16.229 16.23 0 36.267 0c0 0-11.878 4.443-18.043 18.133 9.974 0 18.043 8.16 18.043 18.134z" fill="#000"/></svg>
